icons/folder_type_plugin.svg

<svg xmlns="http://www.w3.org/2000/svg" viewBox="0 0 32 32"><path d="M27.5 5.5h-9.3l-2.1 4.2H4.4v16.8h25.2v-21Zm0 4.2h-8.2l1.1-2.1h7.1Z" style="fill:#ffba58"/><path d="M20 12.5V14h-4a2.006 2.006 0 0 0-2 2v4h-1.5a2.5 2.5 0 0 0 0 5H14v4a2.006 2.006 0 0 0 2 2h3.8v-1.5a2.7 2.7 0 0 1 5.4 0V31H29a2.006 2.006 0 0 0 2-2v-3.8h-1.5a2.7 2.7 0 0 1 0-5.4H31V16a2.006 2.006 0 0 0-2-2h-4v-1.5a2.5 2.5 0 0 0-5 0Z" style="fill:#e76a00"/></svg>

<svg xmlns="http://www.w3.org/2000/svg" viewBox="0 0 32 32"><title>folder_type_plugin</title><path d="M27.5,5.5H18.2L16.1,9.7H4.4V26.5H29.6V5.5Zm0,4.2H19.3l1.1-2.1h7.1Z" style="fill:#ffba58"/><path d="M20,12.5V14H16a2.006,2.006,0,0,0-2,2v4H12.5a2.5,2.5,0,0,0,0,5H14v4a2.006,2.006,0,0,0,2,2h3.8V29.5a2.7,2.7,0,0,1,5.4,0V31H29a2.006,2.006,0,0,0,2-2V25.2H29.5a2.7,2.7,0,0,1,0-5.4H31V16a2.006,2.006,0,0,0-2-2H25V12.5a2.5,2.5,0,0,0-5,0Z" style="fill:#e76a00"/></svg>
